X:
T:St-Laurent du Fleuve
C:Laurence Beaudry
N:©Laurence Beaudry
N:Août 2010
M:4/4
L:1/8
K:Amix
A2ce a=gfe | =gfed ea^ga | A2ce a=gfe | gfed ecBc | A2ce a=gfe | 
=gfed ea^ga | G2Bd gfed |1 edcd e4 :|2 edcB A4 |:
G2Bd gfed | FAdA fedB | EFGE cBAG | FDA,D FABA |  
G2Bd gfed | FAdA fedA | EFGE CEcB | AGFE D4 :|

